!!!COM: Vivaldi, Antonio
!!!OTL: Concerto a violino solo, No. 7
!!!XEN: Violin Concerto No. 7 in D minor
!!!OPR: Il Cimento dell'armonia e dell'inventione
!!!XEN: The Contest of Harmony and Invention
!!!OPS: Opus 8
!!!ONM: No. 7
!!!OMV: Movement 2.
!!!YEC: Copyright 1996, Center for Computer Assisted Research in the Humanities
!!!YEM: Rights to all derivative electronic formats reserved.
!!!YEM: Refer to licensing agreement for important restrictions.
!!!OMD: Largo
**kern	**kern	**kern	**kern	**kern	**Bnum
*Icello	*Iviola	*Ivioln	*Ivioln	*Ivioln	*Icemba
*Icemba	*	*	*	*	*
*ICstr	*ICstr	*ICstr	*ICstr	*ICstr	*ICklav
*ICklav	*	*	*	*	*
!cello	!viola 	!violino 2	!violino 1	!violino principale	!continuo
!basso continuo	!	!	!	!	!
*clefF4	*clefC3	*clefG2	*clefG2	*clefG2	*
*k[b-e-]	*k[b-e-]	*k[b-e-]	*k[b-e-]	*k[b-e-]	*k[b-e-]
*g:	*g:	*g:	*g:	*g:	*g:
*M3/4	*M3/4	*M3/4	*M3/4	*M3/4	*M3/4
*>[A,A,B,B]	*>[A,A,B,B]	*>[A,A,B,B]	*>[A,A,B,B]	*>[A,A,B,B]	*>[A,A,B,B]
*>A	*>A	*>A	*>A	*>A	*>A
=1-	=1-	=1-	=1-	=1-	=1-
8GG/L	8G/L	2.r	8r	4dd\	.
8GG/	8G/	.	8g/L	.	.
8GG/	8G/	.	8b-/	4gg\	.
8GG/	8G/	.	8dd/	.	.
8GG/	8G/	.	8b-/	4bb-\	.
8GG/J	8G/J	.	8g/J	.	.
=2	=2	=2	=2	=2	=2
8D\L	8d\L	8r	4a/	4.ff#\	#
8D\	8d\	8f#/L	.	.	.
8D\	8d\	8a/	4r	.	.
8D\	8d\	8dd/	.	8een\	.
8D\	8d\	8a/	4r	4dd\	.
8D\J	8d\J	8f#/J	.	.	.
=3	=3	=3	=3	=3	=3
8D\L	8d\L	4d/	8r	4dd\	#
8D\	8d\	.	8f#/L	.	.
8D\	8d\	4r	8a/	4ff#\	.
8D\	8d\	.	8dd/	.	.
8D\	8d\	4r	8a/	4ccc\	.
8D\J	8d\J	.	8f#/J	.	.
=4	=4	=4	=4	=4	=4
8GG/L	8G/L	8r	4g/	4.bb-\	.
8GG/	8G/	8g/L	.	.	.
8GG/	8G/	8b-/	4r	.	.
8GG/	8G/	8dd/	.	8aa\	.
8GG/	8G/	8b-/	4r	4gg\	.
8GG/J	8G/J	8g/J	.	.	.
=5	=5	=5	=5	=5	=5
8GG/L	8G/L	4b-\	8r	4dd\	.
8GG/	8G/	.	8g/L	.	.
8GG/	8G/	4r	8b-/	4gg\	.
8GG/	8G/	.	8dd/	.	.
8GG/	8G/	4r	8b-/	4bb-\	.
8GG/J	8G/J	.	8g/J	.	.
=6	=6	=6	=6	=6	=6
8AA/L	8A/L	8r	4en/	4.cc#\	7 #
8AA/	8A/	8en/L	.	.	.
8AA/	8A/	8a/	4r	.	.
8AA/	8A/	8cc#/	.	8een\	.
8AA/	8A/	8a/	4r	4aa\	.
8AA/J	8A/J	8e/J	.	.	.
=7	=7	=7	=7	=7	=7
8D\L	8d\L	8f\L	8r	8ff\L	.
8D\	8d\	8dd\	8a\L	8aa\J	.
8A\	8a\	8een\	8cc#\	4.eent\	#
8A\	8a\	8aa\	8een\	.	.
8AA\	8A\	8ee\	8cc#\	.	.
8AA\J	8A\J	8cc#\J	8a\J	8dd\	.
=8	=8	=8	=8	=8	=8
2.D\	2.d\	2.dd\	2.f/	2.dd\	.
=9:||:	=9:||:	=9:||:	=9:||:	=9:||:	=9:||:
*>B	*>B	*>B	*>B	*>B	*>B
8GG/L	8G/L	8r	2.r	4ddd\	n
8GG/	8G/	8bn\L	.	.	.
8GG/	8G/	8dd\	.	4bbn\	.
8GG/	8G/	8gg\	.	.	.
8GG/	8G/	8dd\	.	4ff\	.
8GG/J	8G/J	8b\J	.	.	.
=10	=10	=10	=10	=10	=10
8C/L	8c\L	4g/	8r	4.ee-\	b
8C/	8c\	.	8g\L	.	.
8C/	8c\	4r	8cc\	.	.
8C/	8c\	.	8ee-\	8dd\	.
8C/	8c\	4r	8cc\	4cc\	.
8C/J	8c\J	.	8g\J	.	.
=11	=11	=11	=11	=11	=11
8FF/L	8F/L	8r	4a/	4ccc\	7
8FF/	8F/	8a\L	.	.	.
8FF/	8F/	8cc\	4r	4aa\	.
8FF/	8F/	8ff\	.	.	.
8FF/	8F/	8cc\	4r	4ee-\	.
8FF/J	8F/J	8a\J	.	.	.
=12	=12	=12	=12	=12	=12
8BB-/L	8B-/L	4f/	8r	4.dd\	.
8BB-/	8B-/	.	8f/L	.	.
8BB-/	8B-/	4r	8b-/	.	.
8BB-/	8B-/	.	8dd/	8cc\	.
8BB-/	8B-/	4r	8b-/	4b-\	.
8BB-/J	8B-/J	.	8f/J	.	.
=13	=13	=13	=13	=13	=13
8BB-/L	8B-/L	8r	4g/	4dd\	6
8BB-/	8B-/	8g/L	.	.	.
8BB-/	8B-/	8b-/	4r	4gg\	.
8BB-/	8B-/	8dd/	.	.	.
8BB-/	8B-/	8b-/	4r	4bb-\	.
8BB-/J	8B-/J	8g/J	.	.	.
=14	=14	=14	=14	=14	=14
8C/L	8c\L	4e-/	8r	4.aa-\	b6
8C/	8c\	.	8a-\L	.	.
8C/	8c\	4r	8cc\	.	.
8C/	8c\	.	8ee-\	8bb-\	.
8C/	8c\	4r	8cc\	4ccc\	.
8C/J	8c\J	.	8a-\J	.	.
=15	=15	=15	=15	=15	=15
8GG/L	8G/L	8r	8g/L	8bb-\L	.
8GG/	8G/	8d/L	8g/	8gg\J	.
8D/	8d/	8f#/	8an/	4.ff#t\	#
8D/	8d/	8a/	8dd/	.	.
8DD/	8D/	8dd/	8a/	.	.
8DD/J	8D/J	8a/J	8dd/J	8gg\	.
=16	=16	=16	=16	=16	=16
2.GG/	2.G/	2.b-\	2.b-\	2.gg\	.
==:||	==:||	==:||	==:||	==:||	==
*-	*-	*-	*-	*-	*-
!!!CDT: 1678/3/4/-1741/7/28
!!!OCY: Italia
!!!ODE: Count Wenzeslaus von Morzin of Bohemia; Count Wenceslas of Morzin
!!!ODT: 1725///
!!!OPC: Venezia; Venice
!!!AGN: concerto
!!!AST: baroque
!!!AMT: simple triple
!!!PPR: Michel-Charles Le Ce`ne
!!!PC#: Le Cene No. 521
!!!PDT: 1725///
!!!PPP: Amsterdam
!!!SCT: RV 242
!!!SMA1: The cooperation of the following libraries is gratefully acknowledged:
!!!SMA2: Saechsische Landesbibliothek, Dresden; Biblioteca Nazionale
!!!SMA3: Universitaria, Turin; Henry Watson Music Library, Manchester.
!!!YOR: New York: Dover Publications, Inc. 1995
!!!AIN: cello cemba viola violn
!!!EEV: 1.0
!!!RDT: 1994/4/26/
!!!YER: 1996/10/31/
!!!YEP: Center for Computer Assisted Research in the Humanities
!!!YEN: United States of America
!!!EFL: 2/3
!!!ENC: Edmund Correia, Jr.
!!!EED: Eleanor Selfridge-Field
